X:1064
T:Drury Hill.
M:6/8
L:1/8
Q:3/8=120
I: :: ::
N:bar 4 is printed |agf e2d2|
Z:Jack Campin * www.campin.me.uk * 2009
K:D
f/g/|afd d>eg|b>ge e>fg|agf e2d|(c/d/ec) A2
f/g/|afd d>ed|b>ge e>fg|afd gec| ddd     d2:|
D/E/|FDF GEG |AFA  BGB |efg fed| cec     A2
A   |Bdg Adf |Gce  FAd |Bgf edc| dAF     D2:|
<end>
<start>
